!!!COM: Schubert, Franz
!!!CDT: 1797/01/31-1828/11/19
!!!SCT: D. 790
!!!OPR: 12 Deutsche Tänze
!!!OPS: 171
!!!ONM: 5
**kern	**kern	**dynam
*part1	*part1	*part1
*staff2	*staff1	*
*clefF4	*clefG2	*
*k[f#c#]	*k[f#c#]	*
*M3/4	*M3/4	*
*MM160	*MM160	*
=1	=1	=1
*	*^	*
4r	[4ff#	(4b 4dd	pp
=!|:	=!|:	=!|:	=!|:
*^	*	*	*
(4BB	2.BB	2.ff#_	(2.a#X) 2.cc#	>
4F#	.	.	.	.
4B)	.	.	.	.
=	=	=	=	=
(4BB	2.BB	2dd 2ff#]	2b)	.
4F#	.	.	.	.
4B)	.	([4f# 4b	(4d	.
=	=	=	=	=
(4BB	2.BB	(2.f#^_) 2.a#X	(2.c#)	.
4F#	.	.	.	.
4B)	.	.	.	.
=	=	=	=	=
(4BB	2.BB	2f#]) 2b	2d)	.
4F#	.	.	.	.
4B)	.	([4dd 4ff#	[4b	.
*v	*v	*	*	*
=	=	=	=
*	*^	*^	*
(4EE	[2.gg)	4ryy@	4dd/]	2b\]	.
4E	.	[2ee	4ee\	.	.
*	*	*	*v	*v	*
4G	.	.	[4cc#\	.
=	=	=	=	=
4AA	(4gg]	4ee]	2.a\ 2.cc#]	.
4A	4aa	4ryy@	.	.
4c#)	4ff#)	4ryy@	.	.
*	*	*v	*v	*
=	=	=	=
*^	*	*	*
*	*^	*	*	*
4D	4ryy@	[2.D\	(2ee	2f#	.
4A	[2A	.	.	.	.
(4c#	.	.	4ff#^	4g 4a	.
*v	*v	*v	*	*	*
=	=	=	=
2D]) 2A] 2d	2a)	2f#	.
=:|!	=:|!	=:|!	=:|!
4r	(4ff#	[4a#X [4cc# [4ee	pp
=	=	=	=
*^	*	*	*
(4F#	2.F#	(2.ee#X^)	2.a#_ 2.cc#_ 2.eeni_	.
4A#X	.	.	.	.
4c#)	.	.	.	.
=	=	=	=	=
(4F#	2.F#	2ff#)	2a#] 2cc#] 2ee]	.
4A#X	.	.	.	.
4c#)	.	(4ff#	[4a#X [4cc# [4ee	.
=	=	=	=	=
(4E	2.E	(2.aani^)	2.a#_ 2.cc#_ 2.ee_	.
4A#X	.	.	.	.
4c#)	.	.	.	.
=	=	=	=	=
(4E	2.E	2gg)	2a#] 2cc#] 2ee]	.
4A#X	.	.	.	.
4c#)	.	[4gg^	(4a#X 4cc#	.
=	=	=	=	=
(4D	2.D	(2gg]	2.b) 2.dd	.
4B	.	.	.	.
4d)	.	4dd)	.	.
=	=	=	=	=
(4BB	2.BB	(2dd 2ee#X	2.e#X 2.b	<
4D	.	.	.	.
4G)	.	4dd)	.	.
=	=	=	=	=
(2.BB 2.D 2.F#	(2.FF#	(2.b 2.dd 2.ff#	(2.f#	[ f >
=	=	=	=	=
2AA#X) 2C# 2F#	2FF#)	2a#X) 2cc# 2ff#	2f#)	] ppp
*v	*v	*	*	*
4r	(4dd#X 4ff#	(4b	.
=	=	=	=
*^	*	*	*
(4BB	2.BB	(2.cc##X^) 2.ff#	(2.a#X)	.
4F#	.	.	.	.
4B)	.	.	.	.
=	=	=	=	=
(4BB	2.BB	2dd#X) 2ff#	2b)	.
4F#	.	.	.	.
4B)	.	(4f# 4b	(4d#X	.
=	=	=	=	=
(4BB	2.BB	(2.f#^) 2.a#X	(2.c##X)	.
4F#	.	.	.	.
4B)	.	.	.	.
=	=	=	=	=
(4BB	2.BB	2f#) 2b	2d#X)	.
4F#	.	.	.	.
*	*	*	*^	*
4B)	.	(4dd#X	4ryy@	([4b\	.
*v	*v	*	*	*	*
=	=	=	=	=
*	*	*	*^	*
(4CC#	([2.ee)	4ryy@	4b/])	2g#X\	.
4C#	.	[2cc#	4cc#\	.	.
*	*	*	*v	*v	*
4E)	.	.	[4a#X\	.
=	=	=	=	=
(4FF#	4ee]	4cc#]	2.f#\ 2.a#]	.
4F#	4ff#	4ryy@	.	.
4A#X)	4dd#X)	4ryy@	.	.
*	*	*v	*v	*
=	=	=	=
*^	*	*	*
*	*^	*	*	*
4BB	4ryy@	[2.BB\	(2b	2d#X	.
4F#	[2F#	.	.	.	.
(4A#X	.	.	4dd#X^	4e 4f#	.
*	*v	*v	*	*	*
=	=	=	=	=
2BB]) 2B	2F#]	2f#)	2d#X	.
*v	*v	*	*	*
*	*v	*v	*
=:|!	=:|!	=:|!
*-	*-	*-
!!!system-decoration: {(s1,s2)}
!!!RDF**kern: i = editorial accidental
!!!AGN: Walzer
!!!EED: Wolfgang Drescher
!!!END: 2025/10/27
!!!ENC: Florian Moldaschl
!!!EEV: 2025/10/27
!!!title: @{OPR}, @{SCT} №@{ONM}